images/fibonacci-spiral-bar-vertical(SINGLE-ITERATION).svg

<?xml version="1.0" encoding="UTF-8" standalone="no"?>
<svg
   xmlns:dc="http://purl.org/dc/elements/1.1/"
   xmlns:cc="http://creativecommons.org/ns#"
   xmlns:rdf="http://www.w3.org/1999/02/22-rdf-syntax-ns#"
   xmlns:svg="http://www.w3.org/2000/svg"
   xmlns="http://www.w3.org/2000/svg"
   xmlns:sodipodi="http://sodipodi.sourceforge.net/DTD/sodipodi-0.dtd"
   xmlns:inkscape="http://www.inkscape.org/namespaces/inkscape"
   version="1.0"
   height="265.87006"
   width="164.9024"
   id="svg2"
   sodipodi:docname="fibonacci-spiral-bar-vertical(SINGLE-ITERATION).svg"
   inkscape:version="1.0.1 (3bc2e813f5, 2020-09-07)"
   inkscape:export-filename="C:\Users\user2020\Desktop\portfolio\Fibonacci_spiral.png"
   inkscape:export-xdpi="96"
   inkscape:export-ydpi="96"
   viewBox="0 0 164.9024 265.87006">
  <sodipodi:namedview
     pagecolor="#1a1a1a"
     bordercolor="#666666"
     borderopacity="1"
     objecttolerance="10"
     gridtolerance="10"
     guidetolerance="10"
     inkscape:pageopacity="0"
     inkscape:pageshadow="2"
     inkscape:window-width="2400"
     inkscape:window-height="1271"
     id="namedview254"
     showgrid="false"
     inkscape:zoom="5.12"
     inkscape:cx="74.925618"
     inkscape:cy="180.43737"
     inkscape:window-x="-9"
     inkscape:window-y="-9"
     inkscape:window-maximized="1"
     inkscape:current-layer="svg2"
     scale-x="1"
     viewbox-width="1200"
     viewbox-height="15000"
     inkscape:document-rotation="0" />
  <metadata
     id="metadata7">
    <rdf:RDF>
      <cc:Work
         rdf:about="">
        <dc:format>image/svg+xml</dc:format>
        <dc:type
           rdf:resource="http://purl.org/dc/dcmitype/StillImage" />
        <dc:title></dc:title>
      </cc:Work>
    </rdf:RDF>
  </metadata>
  <defs
     id="defs5" />
  <path
     id="path2782-7"
     style="fill:#ffffff;fill-opacity:1;fill-rule:nonzero;stroke:#000000;stroke-width:0.301936;stroke-linejoin:miter;stroke-miterlimit:4;stroke-dasharray:none;stroke-opacity:1"
     d="" />
  <g
     id="g2664"
     transform="matrix(1.0032655,0,0,1.0011912,14.412627,0.05213466)">
    <g
       id="g531-3-8"
       transform="matrix(0,0.15063228,-0.15063228,0,152.64556,129.87813)"
       style="stroke:#ffffff">
      <path
         style="opacity:1;fill:none;fill-opacity:1;fill-rule:nonzero;stroke:#ffffff;stroke-width:2.66667;stroke-linejoin:miter;stroke-miterlimit:4;stroke-dasharray:none;stroke-opacity:1"
         id="path1875-3-9"
         d="M -899.02731,355.46605 A 336.18655,336.06839 0 0 1 -562.84075,19.397675"
         transform="scale(-1,1)" />
      <g
         id="g497-3-2"
         transform="translate(5.2e-4,-4.57e-4)"
         style="stroke:#ffffff">
        <g
           id="g468-9-6"
           transform="translate(-5.4e-4)"
           style="stroke:#ffffff">
          <path
             d="M 18.898132,563.14957 A 543.94263,543.75146 0 0 1 562.84077,19.398132"
             id="path1873-7-0"
             style="opacity:1;fill:none;fill-opacity:1;fill-rule:nonzero;stroke:#ffffff;stroke-width:2.66667;stroke-linejoin:miter;stroke-miterlimit:4;stroke-dasharray:none;stroke-opacity:1" />
          <path
             d="m -563.14906,-691.27235 a 207.68251,207.75557 0 0 1 207.68251,-207.75556"
             id="path2762-3-5"
             style="opacity:1;fill:none;fill-opacity:1;fill-rule:nonzero;stroke:#ffffff;stroke-width:2.66667;stroke-linejoin:miter;stroke-miterlimit:4;stroke-dasharray:none;stroke-opacity:1"
             transform="matrix(0,-1,-1,0,0,0)" />
          <path
             style="opacity:1;fill:none;fill-opacity:1;fill-rule:nonzero;stroke:#ffffff;stroke-width:2.66667;stroke-linejoin:miter;stroke-miterlimit:4;stroke-dasharray:none;stroke-opacity:1"
             id="path2764-6-1"
             d="M 562.84128,-434.76319 A 128.43051,128.38536 0 0 1 691.27179,-563.14854"
             transform="scale(1,-1)" />
          <path
             d="m 562.84184,434.7637 a 79.324539,79.296654 0 0 1 79.32454,-79.29665"
             id="path2766-2-2"
             style="opacity:1;fill:none;fill-opacity:1;fill-rule:nonzero;stroke:#ffffff;stroke-width:2.66667;stroke-linejoin:miter;stroke-miterlimit:4;stroke-dasharray:none;stroke-opacity:1" />
          <path
             style="opacity:1;fill:none;fill-opacity:1;fill-rule:nonzero;stroke:#ffffff;stroke-width:2.66667;stroke-linejoin:miter;stroke-miterlimit:4;stroke-dasharray:none;stroke-opacity:1"
             id="path2768-64-3"
             d="m -691.27137,404.55478 a 49.105476,49.088211 0 0 1 49.10548,-49.08821"
             transform="scale(-1,1)" />
          <path
             d="m -691.27178,-404.55426 a 30.218561,30.207939 0 0 1 30.21856,-30.20794"
             id="path2770-5-57"
             style="opacity:1;fill:none;fill-opacity:1;fill-rule:nonzero;stroke:#ffffff;stroke-width:2.66667;stroke-linejoin:miter;stroke-miterlimit:4;stroke-dasharray:none;stroke-opacity:1"
             transform="scale(-1)" />
          <path
             style="opacity:1;fill:none;fill-opacity:1;fill-rule:nonzero;stroke:#ffffff;stroke-width:2.66667;stroke-linejoin:miter;stroke-miterlimit:4;stroke-dasharray:none;stroke-opacity:1"
             id="path2772-8-26"
             d="m 642.16632,-415.8829 a 18.886414,18.879776 0 0 1 18.88641,-18.87978"
             transform="scale(1,-1)" />
          <path
             d="m 642.16683,415.88342 a 11.331649,11.327665 0 0 1 11.33164,-11.32766"
             id="path2774-8-8"
             style="opacity:1;fill:none;fill-opacity:1;fill-rule:nonzero;stroke:#ffffff;stroke-width:2.66667;stroke-linejoin:miter;stroke-miterlimit:4;stroke-dasharray:none;stroke-opacity:1" />
          <path
             id="rect2784-9-67"
             d="M 653.49848,415.88344 V 404.55528"
             style="fill:none;fill-opacity:1;fill-rule:nonzero;stroke:#ffffff;stroke-width:2.66667;stroke-linejoin:miter;stroke-miterlimit:4;stroke-dasharray:none;stroke-opacity:1" />
          <path
             id="rect2786-13-0"
             d="M 661.05275,415.88294 H 642.16583"
             style="fill:none;fill-opacity:1;fill-rule:nonzero;stroke:#ffffff;stroke-width:2.66667;stroke-linejoin:miter;stroke-miterlimit:4;stroke-dasharray:none;stroke-opacity:1" />
          <path
             id="rect2788-0-1"
             d="m 653.49798,412.10688 h 7.55477"
             style="fill:none;fill-opacity:1;fill-rule:nonzero;stroke:#ffffff;stroke-width:2.66667;stroke-linejoin:miter;stroke-miterlimit:4;stroke-dasharray:none;stroke-opacity:1" />
          <path
             id="rect2790-70-4"
             d="m 657.27586,412.10738 v 3.77606"
             style="fill:none;fill-opacity:1;fill-rule:nonzero;stroke:#ffffff;stroke-width:2.66667;stroke-linejoin:miter;stroke-miterlimit:4;stroke-dasharray:none;stroke-opacity:1" />
          <path
             id="rect2794-7-7"
             d="m 661.05325,404.55428 v 30.20844"
             style="fill:none;fill-opacity:1;fill-rule:nonzero;stroke:#ffffff;stroke-width:2.66667;stroke-linejoin:miter;stroke-miterlimit:4;stroke-dasharray:none;stroke-opacity:1" />
          <path
             id="rect2796-3-2"
             d="m 642.16586,404.55478 h 49.10598"
             style="fill:none;fill-opacity:1;fill-rule:nonzero;stroke:#ffffff;stroke-width:2.66667;stroke-linejoin:miter;stroke-miterlimit:4;stroke-dasharray:none;stroke-opacity:1" />
          <path
             id="rect2798-0-3"
             d="M 642.16636,434.76372 V 355.46656"
             style="fill:none;fill-opacity:1;fill-rule:nonzero;stroke:#ffffff;stroke-width:2.66667;stroke-linejoin:miter;stroke-miterlimit:4;stroke-dasharray:none;stroke-opacity:1" />
          <path
             id="rect2800-1-0"
             d="M 691.27181,434.76322 H 562.84079"
             style="fill:none;fill-opacity:1;fill-rule:nonzero;stroke:#ffffff;stroke-width:2.66667;stroke-linejoin:miter;stroke-miterlimit:4;stroke-dasharray:none;stroke-opacity:1" />
          <path
             id="rect2802-5-1"
             d="M 691.27234,355.46658 V 563.14961"
             style="fill:none;fill-opacity:1;fill-rule:nonzero;stroke:#ffffff;stroke-width:2.66667;stroke-linejoin:miter;stroke-miterlimit:4;stroke-dasharray:none;stroke-opacity:1" />
          <path
             id="rect2804-9-5"
             d="M 562.8408,355.27506 H 899.21875"
             style="fill:none;fill-opacity:1;fill-rule:nonzero;stroke:#ffffff;stroke-width:2.66667;stroke-linejoin:miter;stroke-miterlimit:4;stroke-dasharray:none;stroke-opacity:1" />
          <path
             id="rect2806-6-1"
             d="M 562.84129,563.14958 V 19.397678"
             style="fill:none;fill-opacity:1;fill-rule:nonzero;stroke:#ffffff;stroke-width:2.66667;stroke-linejoin:miter;stroke-miterlimit:4;stroke-dasharray:none;stroke-opacity:1" />
          <path
             style="fill:none;fill-opacity:1;fill-rule:nonzero;stroke:#ffffff;stroke-width:2.66667;stroke-linejoin:miter;stroke-miterlimit:4;stroke-dasharray:none;stroke-opacity:1"
             d="M 18.89815,563.1496 V 18.89761"
             id="path922-6-2" />
          <path
             id="path924-5-8"
             d="M 899.02836,562.64954 V 18.897641"
             style="fill:none;fill-opacity:1;fill-rule:nonzero;stroke:#ffffff;stroke-width:2.66667;stroke-linejoin:miter;stroke-miterlimit:4;stroke-dasharray:none;stroke-opacity:1" />
          <path
             style="fill:none;fill-opacity:1;fill-rule:nonzero;stroke:#ffffff;stroke-width:2.66667;stroke-linejoin:miter;stroke-miterlimit:4;stroke-dasharray:none;stroke-opacity:1"
             d="M 18.89765,18.897107 H 899.5276"
             id="path926-8-6" />
          <path
             id="path928-0-9"
             d="M 18.89765,563.14909 H 899.52759"
             style="fill:none;fill-opacity:1;fill-rule:nonzero;stroke:#ffffff;stroke-width:2.66667;stroke-linejoin:miter;stroke-miterlimit:4;stroke-dasharray:none;stroke-opacity:1" />
          <path
             d="m -661.05231,412.10681 a 7.5542655,7.5516105 0 0 1 7.55426,-7.55161"
             id="path1028-0-8"
             style="opacity:1;fill:none;fill-opacity:1;fill-rule:nonzero;stroke:#ffffff;stroke-width:2.66667;stroke-linejoin:miter;stroke-miterlimit:4;stroke-dasharray:none;stroke-opacity:1"
             transform="scale(-1,1)" />
          <path
             style="opacity:1;fill:none;fill-opacity:1;fill-rule:nonzero;stroke:#ffffff;stroke-width:2.66667;stroke-linejoin:miter;stroke-miterlimit:4;stroke-dasharray:none;stroke-opacity:1"
             id="path1030-2-9"
             d="m -661.05276,-412.10736 a 3.7768829,3.7755551 0 0 1 3.77688,-3.77556"
             transform="scale(-1)" />
          <path
             d="m 653.50534,-412.10101 a 3.7768831,3.7755556 0 0 1 3.77689,-3.77556"
             id="path1034-3-6"
             style="opacity:1;fill:none;fill-opacity:1;fill-rule:nonzero;stroke:#ffffff;stroke-width:2.66667;stroke-linejoin:miter;stroke-miterlimit:4;stroke-dasharray:none;stroke-opacity:1"
             transform="scale(1,-1)" />
        </g>
      </g>
    </g>
  </g>
  <g
     id="g531-0-4-3"
     transform="matrix(0,-0.15081172,0.15112415,0,-2.654241,135.78509)"
     style="stroke:#ffffff">
    <path
       style="opacity:1;fill:none;fill-opacity:1;fill-rule:nonzero;stroke:#ffffff;stroke-width:2.66667;stroke-linejoin:miter;stroke-miterlimit:4;stroke-dasharray:none;stroke-opacity:1"
       id="path1875-1-0-2"
       d="M -899.02731,355.46605 A 336.18655,336.06839 0 0 1 -562.84075,19.397675"
       transform="scale(-1,1)" />
    <g
       id="g497-1-2-6"
       transform="translate(5.2e-4,-4.57e-4)"
       style="stroke:#ffffff">
      <g
         id="g468-1-2-9"
         transform="translate(-5.4e-4)"
         style="stroke:#ffffff">
        <path
           d="M 18.898132,563.14957 A 543.94263,543.75146 0 0 1 562.84077,19.398132"
           id="path1873-2-3-8"
           style="opacity:1;fill:none;fill-opacity:1;fill-rule:nonzero;stroke:#ffffff;stroke-width:2.66667;stroke-linejoin:miter;stroke-miterlimit:4;stroke-dasharray:none;stroke-opacity:1" />
        <path
           d="m -563.14906,-691.27235 a 207.68251,207.75557 0 0 1 207.68251,-207.75556"
           id="path2762-6-5-7"
           style="opacity:1;fill:none;fill-opacity:1;fill-rule:nonzero;stroke:#ffffff;stroke-width:2.66667;stroke-linejoin:miter;stroke-miterlimit:4;stroke-dasharray:none;stroke-opacity:1"
           transform="matrix(0,-1,-1,0,0,0)" />
        <path
           style="opacity:1;fill:none;fill-opacity:1;fill-rule:nonzero;stroke:#ffffff;stroke-width:2.66667;stroke-linejoin:miter;stroke-miterlimit:4;stroke-dasharray:none;stroke-opacity:1"
           id="path2764-3-9-2"
           d="M 562.84128,-434.76319 A 128.43051,128.38536 0 0 1 691.27179,-563.14854"
           transform="scale(1,-1)" />
        <path
           d="m 562.84184,434.7637 a 79.324539,79.296654 0 0 1 79.32454,-79.29665"
           id="path2766-0-6-7"
           style="opacity:1;fill:none;fill-opacity:1;fill-rule:nonzero;stroke:#ffffff;stroke-width:2.66667;stroke-linejoin:miter;stroke-miterlimit:4;stroke-dasharray:none;stroke-opacity:1" />
        <path
           style="opacity:1;fill:none;fill-opacity:1;fill-rule:nonzero;stroke:#ffffff;stroke-width:2.66667;stroke-linejoin:miter;stroke-miterlimit:4;stroke-dasharray:none;stroke-opacity:1"
           id="path2768-6-4-0"
           d="m -691.27137,404.55478 a 49.105476,49.088211 0 0 1 49.10548,-49.08821"
           transform="scale(-1,1)" />
        <path
           d="m -691.27178,-404.55426 a 30.218561,30.207939 0 0 1 30.21856,-30.20794"
           id="path2770-4-8-3"
           style="opacity:1;fill:none;fill-opacity:1;fill-rule:nonzero;stroke:#ffffff;stroke-width:2.66667;stroke-linejoin:miter;stroke-miterlimit:4;stroke-dasharray:none;stroke-opacity:1"
           transform="scale(-1)" />
        <path
           style="opacity:1;fill:none;fill-opacity:1;fill-rule:nonzero;stroke:#ffffff;stroke-width:2.66667;stroke-linejoin:miter;stroke-miterlimit:4;stroke-dasharray:none;stroke-opacity:1"
           id="path2772-1-6-0"
           d="m 642.16632,-415.8829 a 18.886414,18.879776 0 0 1 18.88641,-18.87978"
           transform="scale(1,-1)" />
        <path
           d="m 642.16683,415.88342 a 11.331649,11.327665 0 0 1 11.33164,-11.32766"
           id="path2774-1-0-86"
           style="opacity:1;fill:none;fill-opacity:1;fill-rule:nonzero;stroke:#ffffff;stroke-width:2.66667;stroke-linejoin:miter;stroke-miterlimit:4;stroke-dasharray:none;stroke-opacity:1" />
        <path
           id="rect2784-8-8-1"
           d="M 653.49848,415.88344 V 404.55528"
           style="fill:none;fill-opacity:1;fill-rule:nonzero;stroke:#ffffff;stroke-width:2.66667;stroke-linejoin:miter;stroke-miterlimit:4;stroke-dasharray:none;stroke-opacity:1" />
        <path
           id="rect2786-1-2-95"
           d="M 661.05275,415.88294 H 642.16583"
           style="fill:none;fill-opacity:1;fill-rule:nonzero;stroke:#ffffff;stroke-width:2.66667;stroke-linejoin:miter;stroke-miterlimit:4;stroke-dasharray:none;stroke-opacity:1" />
        <path
           id="rect2788-9-5-9"
           d="m 653.49798,412.10688 h 7.55477"
           style="fill:none;fill-opacity:1;fill-rule:nonzero;stroke:#ffffff;stroke-width:2.66667;stroke-linejoin:miter;stroke-miterlimit:4;stroke-dasharray:none;stroke-opacity:1" />
        <path
           id="rect2790-7-4-9"
           d="m 657.27586,412.10738 v 3.77606"
           style="fill:none;fill-opacity:1;fill-rule:nonzero;stroke:#ffffff;stroke-width:2.66667;stroke-linejoin:miter;stroke-miterlimit:4;stroke-dasharray:none;stroke-opacity:1" />
        <path
           id="rect2794-9-1-7"
           d="m 661.05325,404.55428 v 30.20844"
           style="fill:none;fill-opacity:1;fill-rule:nonzero;stroke:#ffffff;stroke-width:2.66667;stroke-linejoin:miter;stroke-miterlimit:4;stroke-dasharray:none;stroke-opacity:1" />
        <path
           id="rect2796-9-4-9"
           d="m 642.16586,404.55478 h 49.10598"
           style="fill:none;fill-opacity:1;fill-rule:nonzero;stroke:#ffffff;stroke-width:2.66667;stroke-linejoin:miter;stroke-miterlimit:4;stroke-dasharray:none;stroke-opacity:1" />
        <path
           id="rect2798-6-9-2"
           d="M 642.16636,434.76372 V 355.46656"
           style="fill:none;fill-opacity:1;fill-rule:nonzero;stroke:#ffffff;stroke-width:2.66667;stroke-linejoin:miter;stroke-miterlimit:4;stroke-dasharray:none;stroke-opacity:1" />
        <path
           id="rect2800-2-8-6"
           d="M 691.27181,434.76322 H 562.84079"
           style="fill:none;fill-opacity:1;fill-rule:nonzero;stroke:#ffffff;stroke-width:2.66667;stroke-linejoin:miter;stroke-miterlimit:4;stroke-dasharray:none;stroke-opacity:1" />
        <path
           id="rect2802-3-8-2"
           d="M 691.27234,355.46658 V 563.14961"
           style="fill:none;fill-opacity:1;fill-rule:nonzero;stroke:#ffffff;stroke-width:2.66667;stroke-linejoin:miter;stroke-miterlimit:4;stroke-dasharray:none;stroke-opacity:1" />
        <path
           id="rect2804-7-8-46"
           d="M 562.8408,355.27506 H 899.21875"
           style="fill:none;fill-opacity:1;fill-rule:nonzero;stroke:#ffffff;stroke-width:2.66667;stroke-linejoin:miter;stroke-miterlimit:4;stroke-dasharray:none;stroke-opacity:1" />
        <path
           id="rect2806-1-5-0"
           d="M 562.84129,563.14958 V 19.397678"
           style="fill:none;fill-opacity:1;fill-rule:nonzero;stroke:#ffffff;stroke-width:2.66667;stroke-linejoin:miter;stroke-miterlimit:4;stroke-dasharray:none;stroke-opacity:1" />
        <path
           style="fill:none;fill-opacity:1;fill-rule:nonzero;stroke:#ffffff;stroke-width:2.66667;stroke-linejoin:miter;stroke-miterlimit:4;stroke-dasharray:none;stroke-opacity:1"
           d="M 18.89815,563.1496 V 18.89761"
           id="path922-4-9-7" />
        <path
           id="path924-8-0-4"
           d="M 899.02836,562.64954 V 18.897641"
           style="fill:none;fill-opacity:1;fill-rule:nonzero;stroke:#ffffff;stroke-width:2.66667;stroke-linejoin:miter;stroke-miterlimit:4;stroke-dasharray:none;stroke-opacity:1" />
        <path
           style="fill:none;fill-opacity:1;fill-rule:nonzero;stroke:#ffffff;stroke-width:2.66667;stroke-linejoin:miter;stroke-miterlimit:4;stroke-dasharray:none;stroke-opacity:1"
           d="M 18.89765,18.897107 H 899.5276"
           id="path926-9-7-5" />
        <path
           id="path928-4-5-25"
           d="M 18.89765,563.14909 H 899.52759"
           style="fill:none;fill-opacity:1;fill-rule:nonzero;stroke:#ffffff;stroke-width:2.66667;stroke-linejoin:miter;stroke-miterlimit:4;stroke-dasharray:none;stroke-opacity:1" />
        <path
           d="m -661.05231,412.10681 a 7.5542655,7.5516105 0 0 1 7.55426,-7.55161"
           id="path1028-1-5-5"
           style="opacity:1;fill:none;fill-opacity:1;fill-rule:nonzero;stroke:#ffffff;stroke-width:2.66667;stroke-linejoin:miter;stroke-miterlimit:4;stroke-dasharray:none;stroke-opacity:1"
           transform="scale(-1,1)" />
        <path
           style="opacity:1;fill:none;fill-opacity:1;fill-rule:nonzero;stroke:#ffffff;stroke-width:2.66667;stroke-linejoin:miter;stroke-miterlimit:4;stroke-dasharray:none;stroke-opacity:1"
           id="path1030-7-8-6"
           d="m -661.05276,-412.10736 a 3.7768829,3.7755551 0 0 1 3.77688,-3.77556"
           transform="scale(-1)" />
        <path
           d="m 653.50534,-412.10101 a 3.7768831,3.7755556 0 0 1 3.77689,-3.77556"
           id="path1034-9-0-0"
           style="opacity:1;fill:none;fill-opacity:1;fill-rule:nonzero;stroke:#ffffff;stroke-width:2.66667;stroke-linejoin:miter;stroke-miterlimit:4;stroke-dasharray:none;stroke-opacity:1"
           transform="scale(1,-1)" />
      </g>
    </g>
  </g>
</svg>

<?xml version="1.0" encoding="UTF-8"?>
<svg width="164.9" height="265.87" version="1.0" viewBox="0 0 164.9024 265.87006" xmlns="http://www.w3.org/2000/svg" xmlns:cc="http://creativecommons.org/ns#" xmlns:dc="http://purl.org/dc/elements/1.1/" xmlns:rdf="http://www.w3.org/1999/02/22-rdf-syntax-ns#">
<metadata>
<rdf:RDF>
<cc:Work rdf:about="">
<dc:format>image/svg+xml</dc:format>
<dc:type rdf:resource="http://purl.org/dc/dcmitype/StillImage"/>
<dc:title/>
</cc:Work>
</rdf:RDF>
</metadata>
<g transform="matrix(1.0033 0 0 1.0012 14.413 .052135)">
<g transform="matrix(0 .15063 -.15063 0 152.65 129.88)" stroke="#fff">
<path transform="scale(-1,1)" d="m-899.03 355.47a336.19 336.07 0 0 1 336.19 -336.07" fill="none" stroke-width="2.6667"/>
<g transform="translate(5.2e-4,-4.57e-4)">
<g transform="translate(-5.4e-4)" fill="none" stroke="#fff" stroke-width="2.6667">
<path d="m18.898 563.15a543.94 543.75 0 0 1 543.94 -543.75"/>
<path transform="matrix(0,-1,-1,0,0,0)" d="m-563.15-691.27a207.68 207.76 0 0 1 207.68 -207.76"/>
<path transform="scale(1,-1)" d="m562.84-434.76a128.43 128.39 0 0 1 128.43 -128.39"/>
<path d="m562.84 434.76a79.325 79.297 0 0 1 79.325 -79.297"/>
<path transform="scale(-1,1)" d="m-691.27 404.55a49.105 49.088 0 0 1 49.105 -49.088"/>
<path transform="scale(-1)" d="m-691.27-404.55a30.219 30.208 0 0 1 30.219 -30.208"/>
<path transform="scale(1,-1)" d="m642.17-415.88a18.886 18.88 0 0 1 18.886 -18.88"/>
<path d="m642.17 415.88a11.332 11.328 0 0 1 11.332 -11.328"/>
<path d="m653.5 415.88v-11.328"/>
<path d="m661.05 415.88h-18.887"/>
<path d="m653.5 412.11h7.5548"/>
<path d="m657.28 412.11v3.7761"/>
<path d="m661.05 404.55v30.208"/>
<path d="m642.17 404.55h49.106"/>
<path d="m642.17 434.76v-79.297"/>
<path d="m691.27 434.76h-128.43"/>
<path d="m691.27 355.47v207.68"/>
<path d="m562.84 355.28h336.38"/>
<path d="m562.84 563.15v-543.75"/>
<path d="m18.898 563.15v-544.25"/>
<path d="m899.03 562.65v-543.75"/>
<path d="m18.898 18.897h880.63"/>
<path d="m18.898 563.15h880.63"/>
<path transform="scale(-1,1)" d="m-661.05 412.11a7.5543 7.5516 0 0 1 7.5543 -7.5516"/>
<path transform="scale(-1)" d="m-661.05-412.11a3.7769 3.7756 0 0 1 3.7769 -3.7756"/>
<path transform="scale(1,-1)" d="m653.51-412.1a3.7769 3.7756 0 0 1 3.7769 -3.7756"/>
</g>
</g>
</g>
</g>
<g transform="matrix(0 -.15081 .15112 0 -2.6542 135.79)" stroke="#fff">
<path transform="scale(-1,1)" d="m-899.03 355.47a336.19 336.07 0 0 1 336.19 -336.07" fill="none" stroke-width="2.6667"/>
<g transform="translate(5.2e-4,-4.57e-4)">
<g transform="translate(-5.4e-4)" fill="none" stroke="#fff" stroke-width="2.6667">
<path d="m18.898 563.15a543.94 543.75 0 0 1 543.94 -543.75"/>
<path transform="matrix(0,-1,-1,0,0,0)" d="m-563.15-691.27a207.68 207.76 0 0 1 207.68 -207.76"/>
<path transform="scale(1,-1)" d="m562.84-434.76a128.43 128.39 0 0 1 128.43 -128.39"/>
<path d="m562.84 434.76a79.325 79.297 0 0 1 79.325 -79.297"/>
<path transform="scale(-1,1)" d="m-691.27 404.55a49.105 49.088 0 0 1 49.105 -49.088"/>
<path transform="scale(-1)" d="m-691.27-404.55a30.219 30.208 0 0 1 30.219 -30.208"/>
<path transform="scale(1,-1)" d="m642.17-415.88a18.886 18.88 0 0 1 18.886 -18.88"/>
<path d="m642.17 415.88a11.332 11.328 0 0 1 11.332 -11.328"/>
<path d="m653.5 415.88v-11.328"/>
<path d="m661.05 415.88h-18.887"/>
<path d="m653.5 412.11h7.5548"/>
<path d="m657.28 412.11v3.7761"/>
<path d="m661.05 404.55v30.208"/>
<path d="m642.17 404.55h49.106"/>
<path d="m642.17 434.76v-79.297"/>
<path d="m691.27 434.76h-128.43"/>
<path d="m691.27 355.47v207.68"/>
<path d="m562.84 355.28h336.38"/>
<path d="m562.84 563.15v-543.75"/>
<path d="m18.898 563.15v-544.25"/>
<path d="m899.03 562.65v-543.75"/>
<path d="m18.898 18.897h880.63"/>
<path d="m18.898 563.15h880.63"/>
<path transform="scale(-1,1)" d="m-661.05 412.11a7.5543 7.5516 0 0 1 7.5543 -7.5516"/>
<path transform="scale(-1)" d="m-661.05-412.11a3.7769 3.7756 0 0 1 3.7769 -3.7756"/>
<path transform="scale(1,-1)" d="m653.51-412.1a3.7769 3.7756 0 0 1 3.7769 -3.7756"/>
</g>
</g>
</g>
</svg>
